!!!!SEGMENT: pl-wtm--r-1227--020_lodwigowski-edward-stefan--stala-nam-sie-nowina.krn
!!!cenid: 18xx:1960
!!!COM: Łodwigowski, Edward Stefan
!!!COM-rism: pe30111147
!!!CDT: 1815/08/14-1895/11/12
!!!CNT: Polish
!!!OTL: Stała nam się nowina
!!!PDT:
!!!AGN:
!!!SMS-siglum: PL-Wtm
!!!SMS-shelfmark: R 1227
!!!NIFC-rismID: 1001084130
!!!URL-scan: http://repozytorium.nifc.pl/skany/pl-wtm-nut--r1226-1227
!!!ONB-nifc: UWAGA: No. 91
!!!OMD: No 91. Allegro Moderato.
!!!SMS-variant:
!!!SMS-altvar:
**kern	**fing	**kern	**fing	**dynam
*part1	*	*part1	*	*part1
*staff2	*	*staff1	*	*
*I"Fortepian	*	*I"Fortepian	*	*
*clefG2	*	*clefG2	*	*
*k[f#c#]	*	*k[f#c#]	*	*
*M2/4	*	*M2/4	*	*
*>[A,B,B]	*	*>[A,B,B]	*	*>[A,B,B]
=1	=1	=1	=1	=1
*all\right	*	*all\right	*	*
*>A	*	*>A	*	*>A
*^	*	*	*	*
*	*2\right	*	*	*	*
!	!	!	!LO:TX:a:i:t=Stała nam się nowina P.L.P.	!	!
(4.f#/	[2d\	3	(8dd\L	2	p
.	.	.	8a\	1	.
.	.	.	8dd\	2	.
8g/	.	.	8ee\J	.	.
=2	=2	=2	=2	=2	=2
4a/	2d\_	.	4ff#\	.	.
4g/	.	.	4ee\	.	.
=3	=3	=3	=3	=3	=3
*	*	*	*2\right	*	*
2f#;/)	2d\]	.	2dd;\)	.	.
=4!|:	=4!|:	=4!|:	=4!|:	=4!|:	=4!|:
*>B	*>B	*	*>B	*	*>B
*	*	*^	*	*	*
[2a/	[2d\	1	4	8ff#L 8dd\	1 3	mf
.	.	.	.	8ee 8cc#\	2 4	.
.	.	.	.	8ff# 8dd\	1 3	.
.	.	.	.	8ggJ 8ee\	.	.
!!LO:LB:g=original
=5	=5	=5	=5	=5	=5	=5
*	*	*	*	*^	*	*
*	*	*	*	*	*	*^	*
4a/]	8d\L]	.	.	4aa 4ff#\	4ryy	3 5	.	<
.	8cn\J	.	5	.	.	.	.	.
4f#/	4B\	2	5	8bb/L	4dd#X\	5	2	[ sf >
.	.	.	.	8aa/J	.	4	.	]]
*	*	*v	*v	*	*	*	*	*
=6	=6	=6	=6	=6	=6	=6	=6
[4e/	4e\	1	8gg/L	8ee\L	3	1	.
.	.	.	8ff#/	8dd\	2	1	.
4e/_	4A\	.	8ee/	8cc#\	4	2	.
.	.	.	8ff#/J	8dd\J	3	1	.
=7	=7	=7	=7	=7	=7	=7	=7
2e/]	(>8A\L	.	4gg/	4ee\	4	2	<
.	8B-X\J	.	.	.	.	.	.
.	4A'>\)	.	8aa/L	4cc#\	5	1	[ sf >
.	.	.	8gg/J	.	4	.	]]
*	*	*	*	*	*v	*v	*
=8	=8	=8	=8	=8	=8	=8
*	*	*^	*	*	*	*
8a/L	[2d\	1	5	8ff#/	8dd\L	3	.
8g/	.	.	.	8ryy	(8ee\	.	.
8f#/	.	.	.	4ryy	8dd\	.	.
8g/J	.	.	.	.	8ee\J)	.	.
*	*	*v	*v	*	*	*	*
*	*	*	*v	*v	*	*
=9	=9	=9	=9	=9	=9
!	!	!	!	!	!LO:HP:t=dimi
(4a/	4d\]	.	(4ff#\	.	>
4g/	4c# 4A\	.	4ee\	.	.
!	!	!	!LO:TX:b:t=ralen	!	!
=10	=10	=10	=10	=10	=10
2f#;/)	2d\	2	2dd;\)	.	.
*v	*v	*	*	*	*
=:|!	=:|!	=:|!	=:|!	=:|!
*-	*-	*-	*-	*-
!!!system-decoration: {s1,s2}
!!!RDF**kern: > = above
!!!ENC: Marta Lawrence
!!!ENC: 2021-05-02
!!!ENC: Marcin Jachim
!!!END: 2021-04-19
